X: 28774
T: My Love Is Fair And Handsome
R: reel
M: 4/4
K: Amajor
E3F A2Bc|dBcA BFAF|E3F ABcA|1 B3c A2AF:|2 B3c ABcd||
e2ce aecA|BdcA BFF2|e2ce aecA|B3c ABcd|
e2ef e2cA|B/c/d cA BFF2|Affe f/g/a ec|B3c A2AF||

